packages/foundations/assets/icons/functional/images/file/upload_16.svg

<svg width="16" height="16" viewBox="0 0 16 16" fill="none" xmlns="http://www.w3.org/2000/svg">
<g clip-path="url(#clip0_185_1014)">
<path fill-rule="evenodd" clip-rule="evenodd" d="M4.80002 14.4H11.2C12.525 14.4 13.6 13.3249 13.6 12V10.4C13.6 9.94998 13.225 9.59998 12.8 9.59998C12.35 9.59998 12 9.94998 12 10.4V12C12 12.4249 11.65 12.8 11.2 12.8H4.80002C4.35002 12.8 4.00002 12.4249 4.00002 12V10.4C4.00002 9.94998 3.65002 9.59998 3.20002 9.59998C2.77506 9.59998 2.40002 9.94998 2.40002 10.4V12C2.40002 13.3249 3.47506 14.4 4.80002 14.4ZM7.45002 1.82494C7.62498 1.67502 7.82498 1.59998 8.02498 1.59998C8.22498 1.59998 8.40002 1.67502 8.57506 1.82494L11.025 4.29998C11.15 4.44998 11.2 4.64998 11.2 4.79998C11.2 5.22494 10.85 5.59998 10.4 5.59998C10.15 5.59998 10 5.52494 9.82498 5.34998L8.80002 4.32494V9.59998C8.80002 10.0249 8.45002 10.4 8.00002 10.4C7.55002 10.4 7.20002 10.0249 7.20002 9.59998V4.32494L6.17506 5.34998C6.02498 5.52494 5.82498 5.59998 5.62498 5.59998C5.22498 5.59998 4.80002 5.24998 4.80002 4.77502C4.80002 4.57502 4.87506 4.37502 5.02498 4.22494L7.45002 1.82494Z" fill="#1A1C1F"/>
</g>
<defs>
<clipPath id="clip0_185_1014">
<rect width="16" height="16" fill="white"/>
</clipPath>
</defs>
</svg>

<svg xmlns="http://www.w3.org/2000/svg" width="16" height="16" fill="none"><g clip-path="url(#a)"><path fill="#1A1C1F" fill-rule="evenodd" d="M4.8 14.4h6.4a2.4 2.4 0 0 0 2.4-2.4v-1.6c0-.45-.375-.8-.8-.8-.45 0-.8.35-.8.8V12c0 .425-.35.8-.8.8H4.8c-.45 0-.8-.375-.8-.8v-1.6c0-.45-.35-.8-.8-.8-.425 0-.8.35-.8.8V12a2.4 2.4 0 0 0 2.4 2.4M7.45 1.825a.88.88 0 0 1 .575-.225c.2 0 .375.075.55.225l2.45 2.475c.125.15.175.35.175.5 0 .425-.35.8-.8.8-.25 0-.4-.075-.575-.25L8.8 4.325V9.6c0 .425-.35.8-.8.8s-.8-.375-.8-.8V4.325L6.175 5.35a.71.71 0 0 1-.55.25c-.4 0-.825-.35-.825-.825 0-.2.075-.4.225-.55z" clip-rule="evenodd"/></g><defs><clipPath id="a"><path fill="#fff" d="M0 0h16v16H0z"/></clipPath></defs></svg>
